X: 1
T:The Clout
R:slipjig
M:9/8
L:1/8
K:G
"G"d2g "D"fdf A3|"G"d2g "D"fdf "A"ge^c|"D"dfd "D"fdf A3|"C"(c3 c2)a "A"ge^c:|
"D"afd dfd A3|"D"afd dfd "A"ge^c|"D"afd dfd A3|"C"(c3 c2)a "A"ge^c:|
